X:1
T:Title
%%score { 1 | 2 }
L:1/8
Q:1/4=100
M:4/4
K:F
V:1 treble nm="Grand Piano"
V:2 bass 
V:1
 [A,CF]3 [B,CG] [CFA]2 [CFc]2 | [CEG]2 [CGB]2 A2 F2 | F3 G A2 d2 | c2 A2 [EG]4 | A3 F G2 F2 | %5
w: John~R.~Sweney * * *|||||
 [Ec]2 [EG]2 [GB]2 [FA]2 | [Af]3 c d2 B2 | A2 [EG]2 F4 | [EG]3 [FA] [Ac]2 [GB]2 | %9
w: ||||
 [FA]2 [GB]2 [Fd]2 [Fc]2 | [Af]3 d c2 A2 | FF[GB][FA] [EG]4 | A3 F G2 F2 | %13
w: ||||
 [Ec]2 [EG]2 [GB]2 [FA]2 | [Af]3 c d2 B2 |[M:8/4] A2 [EG]2 F4 z8 |] %16
w: |||
V:2
 F,3 F, F,2 A,,2 | C,2 E,2 [F,CF]2 [F,A,C]2 | [F,A,C]3 [F,B,C][K:treble] [F,CF]2 [B,F]2 | %3
 [A,CF]2[K:bass] [F,CF]2 [C,C]4 | [F,CF]3 [F,A,C] [F,B,C]2 [F,A,C]2 | %5
 [C,G,]2 [C,C]2 [F,C]2 [F,C]2 | [F,C]3[K:treble] [A,CF] [B,F]2 [B,DF]2 | %7
 [CF]2[K:bass] [C,B,]2 [F,A,]4 | [C,C]3 [C,C] [C,C]2 [C,C]2 | [F,C]2 [F,C]2 [F,B,]2 [F,A,]2 | %10
 [F,C]3 [F,B,F] [F,A,F]2 [F,CF]2 | [A,C][A,C][E,C][F,C] [C,C]4 | %12
 [F,CF]3 [F,A,C] [F,B,C]2 [F,A,C]2 | [C,G,]2 [C,C]2 [F,C]2 [F,C]2 | %14
 [F,C]3[K:treble] [A,CF] [B,F]2 [B,DF]2 |[M:8/4] [CF]2[K:bass] [C,B,]2 [F,A,]4 z8 |] %16

